X: 423
T: LADY GEORGINA
C: R. MACKINTOSH
R: Reel
B: Glen Collection p.42 #3
Z: 2011 John Chambers <jc:trillian.mit.edu>
M: C|
L: 1/8
V: 1 clef=treble middle=B
V: 2 clef=bass middle=d
%%score {1 | 2}
K: Dm
%
V: 1
a |\
f(ddA) FDdf | e(ccG) ECce | f(ddA) FDAd | cAGE A(DDe) |
f(ddA) FDdf | e(ccG) ECcE | FDEG AFGB | Ad^ce dD-D ||
a |\
fada bgaf | egcg acgc | fada bgad | ^ceAa f(dde) |
fada bgaf | egcg acgc | dAeA fAgA | afge fd-d |]
%
V: 2
z |\
[a2d2][a2f2] A2[a2f2] | c2[g2e2] G2[g2e2] |\
d2[a2f2] A2[a2f2] | c2^c2 d2[a2f2] |
d2[a2f2] A2[a2f2] | c2[g2e2] G2[g2e2] |\
d2[b2g2] [a2f2][g2e2] | a2A2 d2[afd] ||
z |\
d2[a2f2] [g2e2][a2f2] | c2[c'2g2] e2[c'2g2] |\
d2[a2f2] [g2e2][a2f2] | A2^c2 d2[a2f2] |
d2[a2f2] [g2e2][a2f2] | c2[c'2g2] e2[c'2g2] |\
d2[a2f2] f2e2 | d2[^c'2a2] [d'2d2] [afd] |]
